src/icons/outline/media/upload.svg

<svg width="24" height="24" viewBox="0 0 24 24" fill="none" xmlns="http://www.w3.org/2000/svg">
<g clip-path="url(#clip0_4509_357)">
<path d="M22.2793 15.7595C22.6804 15.7996 23 16.1333 23 16.531V17.8445C23 19.7168 21.4288 21.2476 19.4834 21.2478H4.5166C2.5819 21.2476 1 19.7271 1 17.8445V16.531C1.00001 16.1069 1.36347 15.7556 1.80176 15.7556L1.88281 15.7595C2.28394 15.7997 2.60351 16.1333 2.60352 16.531V17.8445C2.60352 18.8685 3.45848 19.6968 4.5166 19.697H19.4834C20.5308 19.6968 21.3965 18.8685 21.3965 17.8445V16.531C21.3965 16.1069 21.76 15.7556 22.1982 15.7556L22.2793 15.7595Z" fill="#3C3B44"/>
<path d="M11.9893 3.75171C12.203 3.75171 12.3952 3.83467 12.5342 3.95874L12.5449 3.96851H12.5664L16.6504 7.92065C16.9603 8.22065 16.9603 8.71736 16.6504 9.01733C16.3404 9.31733 15.8266 9.31733 15.5166 9.01733L12.8018 6.3894V14.9792C12.8018 15.4034 12.4383 15.7556 12 15.7556C11.5617 15.7556 11.1982 15.4034 11.1982 14.9792V6.3894L8.4834 9.01733C8.17339 9.31733 7.65962 9.31733 7.34961 9.01733C7.03974 8.71737 7.03977 8.22064 7.34961 7.92065L11.4443 3.95874C11.594 3.83464 11.7755 3.75173 11.9893 3.75171Z" fill="#3C3B44"/>
</g>
<defs>
<clipPath id="clip0_4509_357">
<rect width="24" height="24" fill="white"/>
</clipPath>
</defs>
</svg>

<svg xmlns="http://www.w3.org/2000/svg" width="24" height="24" fill="none" viewBox="0 0 24 24"><g fill="currentColor" clip-path="url(#a)"><path d="M22.28 15.76c.4.04.72.373.72.771v1.314c0 1.872-1.571 3.403-3.517 3.403H4.517C2.582 21.248 1 19.728 1 17.844v-1.313c0-.424.363-.775.802-.775l.08.003c.402.04.722.374.722.772v1.314c0 1.024.854 1.852 1.913 1.852h14.966c1.048 0 1.913-.828 1.913-1.852V16.53c0-.424.364-.775.802-.775z"/><path d="M11.99 3.752a.82.82 0 0 1 .544.207l.01.01h.022L16.65 7.92c.31.3.31.796 0 1.096s-.823.3-1.133 0L12.802 6.39v8.59c0 .424-.364.777-.802.777s-.802-.353-.802-.777V6.39L8.483 9.017c-.31.3-.823.3-1.133 0a.763.763 0 0 1 0-1.096l4.094-3.962a.84.84 0 0 1 .545-.207"/></g><defs><clipPath id="a"><path fill="currentColor" d="M0 0h24v24H0z"/></clipPath></defs></svg>
